src/icons/svgs/24/share-from-square.svg

<svg width="24" height="24" viewBox="0 0 24 24" fill="none" xmlns="http://www.w3.org/2000/svg">
<path d="M23.7266 7.26683L18.4766 2.24422C18.1257 1.90383 17.572 1.92242 17.2403 2.28025C16.9076 2.63807 16.9235 3.20261 17.2756 3.54092L20.9251 7.05637H14.9678C13.4818 6.95454 12.1036 7.57912 11.0573 8.63494C10 9.70564 9.41667 11.137 9.41667 12.6724V15.9105C9.41667 16.4031 9.80859 16.7693 10.2917 16.7693C10.7747 16.7693 11.1667 16.4384 11.1667 15.9439V12.6724C11.1667 11.6176 11.5655 10.6336 12.2889 9.90268C13.0005 9.18516 13.8974 8.76878 14.9583 8.80596H20.9229L17.2734 12.3214C16.9214 12.6595 16.9056 13.2241 17.2381 13.5821C17.4102 13.7345 17.6413 13.8621 17.8739 13.8621C18.0893 13.8621 18.3056 13.7819 18.4744 13.6181L23.7244 8.5955C23.9016 8.39329 24 8.15908 24 7.91371C24 7.66834 23.9016 7.43413 23.7266 7.26683ZM16.125 16.2413C15.6419 16.2413 15.25 16.641 15.25 17.1001V18.8512C15.25 19.015 15.119 19.1151 14.9583 19.1151H5.04167C4.88103 19.1151 4.75 18.9815 4.75 18.8512V8.80596C4.75 8.64215 4.88103 8.542 5.04167 8.542H7.08333C7.56641 8.542 7.95833 8.14235 7.95833 7.68321C7.95833 7.22408 7.56641 6.82442 7.08333 6.82442H5.04167C3.91583 6.82442 3 7.75831 3 8.87287V18.9515C3 20.0669 3.9162 21 5.04167 21H14.9583C16.0842 21 17 20.0661 17 18.9515V17.2005C17 16.6429 16.6099 16.2413 16.125 16.2413V16.2413Z" fill="black"/>
</svg>

<svg width="24" height="24" viewBox="0 0 24 24" xmlns="http://www.w3.org/2000/svg">
    <path d="m23.727 7.267-5.25-5.023a.861.861 0 0 0-1.237.036.902.902 0 0 0 .036 1.26l3.65 3.516h-5.958c-1.486-.101-2.864.523-3.91 1.579a5.7 5.7 0 0 0-1.641 4.037v3.239c0 .492.392.858.875.858s.875-.33.875-.825v-3.272c0-1.054.399-2.038 1.122-2.77.712-.717 1.608-1.133 2.67-1.096h5.964l-3.65 3.515a.903.903 0 0 0-.035 1.261c.172.152.403.28.636.28.215 0 .432-.08.6-.244l5.25-5.023c.178-.202.276-.436.276-.681a.894.894 0 0 0-.273-.647Zm-7.602 8.974c-.483 0-.875.4-.875.86v1.75c0 .164-.131.264-.292.264H5.042c-.161 0-.292-.133-.292-.264V8.806c0-.164.131-.264.292-.264h2.041c.483 0 .875-.4.875-.859a.877.877 0 0 0-.875-.859H5.042A2.057 2.057 0 0 0 3 8.873v10.079C3 20.066 3.916 21 5.042 21h9.916A2.057 2.057 0 0 0 17 18.951v-1.75c0-.558-.39-.96-.875-.96Z"/>
</svg>
